svg/color/grg.svg

<?xml version="1.0" encoding="UTF-8" ?>
<!DOCTYPE svg PUBLIC "-//W3C//DTD SVG 1.1//EN" "http://www.w3.org/Graphics/SVG/1.1/DTD/svg11.dtd">
<svg width="250pt" height="250pt" viewBox="0 0 250 250" version="1.1" xmlns="http://www.w3.org/2000/svg">
<g id="#ffffffff">
<path fill="#ffffff" opacity="1.00" d=" M 0.00 0.00 L 250.00 0.00 L 250.00 250.00 L 0.00 250.00 L 0.00 0.00 M 107.01 15.97 C 76.44 46.77 45.69 77.39 15.05 108.12 C 11.11 112.67 6.15 116.32 2.73 121.30 C 3.06 121.22 3.71 121.07 4.03 120.99 C 14.55 125.70 25.64 129.03 36.39 133.17 C 33.99 161.12 43.34 189.89 61.88 210.98 C 78.12 229.83 101.23 242.66 125.87 246.26 C 150.02 250.07 175.45 245.01 196.36 232.36 C 215.10 221.12 230.21 203.94 238.88 183.88 C 249.11 160.42 250.46 133.19 242.44 108.87 C 235.17 86.17 219.81 66.23 199.88 53.18 C 180.31 40.28 156.29 34.12 132.94 36.29 C 143.79 66.38 154.82 96.41 165.72 126.49 C 173.38 147.12 180.49 167.96 188.48 188.46 L 186.39 187.22 L 185.99 189.81 C 185.97 189.16 185.93 187.86 185.91 187.21 L 184.97 186.99 C 185.50 187.07 186.57 187.24 187.10 187.32 C 185.64 185.63 184.13 184.00 182.54 182.44 C 155.72 155.77 129.12 128.86 102.22 102.27 C 108.05 69.06 114.58 35.97 120.59 2.79 C 115.71 6.80 111.57 11.62 107.01 15.97 Z" />
</g>
<g id="#ffae00ff">
<path fill="#ffae00" opacity="1.00" d=" M 107.01 15.97 C 111.57 11.62 115.71 6.80 120.59 2.79 C 114.58 35.97 108.05 69.06 102.22 102.27 C 72.76 107.54 43.40 113.35 13.97 118.76 C 10.60 119.25 7.35 120.29 4.03 120.99 C 3.71 121.07 3.06 121.22 2.73 121.30 C 6.15 116.32 11.11 112.67 15.05 108.12 C 45.69 77.39 76.44 46.77 107.01 15.97 Z" />
</g>
<g id="#054186ff">
<path fill="#054186" opacity="1.00" d=" M 132.94 36.29 C 156.29 34.12 180.31 40.28 199.88 53.18 C 219.81 66.23 235.17 86.17 242.44 108.87 C 250.46 133.19 249.11 160.42 238.88 183.88 C 230.21 203.94 215.10 221.12 196.36 232.36 C 175.45 245.01 150.02 250.07 125.87 246.26 C 101.23 242.66 78.12 229.83 61.88 210.98 C 43.34 189.89 33.99 161.12 36.39 133.17 C 82.65 150.01 128.91 166.86 175.16 183.75 C 178.39 184.92 181.58 186.30 184.97 186.99 L 185.91 187.21 C 185.93 187.86 185.97 189.16 185.99 189.81 L 186.39 187.22 L 188.48 188.46 C 180.49 167.96 173.38 147.12 165.72 126.49 C 154.82 96.41 143.79 66.38 132.94 36.29 Z" />
</g>
<g id="#ffca57ff">
<path fill="#ffca57" opacity="1.00" d=" M 13.97 118.76 C 43.40 113.35 72.76 107.54 102.22 102.27 C 129.12 128.86 155.72 155.77 182.54 182.44 C 184.13 184.00 185.64 185.63 187.10 187.32 C 186.57 187.24 185.50 187.07 184.97 186.99 C 181.58 186.30 178.39 184.92 175.16 183.75 C 128.91 166.86 82.65 150.01 36.39 133.17 C 25.64 129.03 14.55 125.70 4.03 120.99 C 7.35 120.29 10.60 119.25 13.97 118.76 Z" />
</g>
</svg>

<?xml version="1.0" encoding="utf-8"?>
<!-- Generator: Adobe Illustrator 26.0.3, SVG Export Plug-In . SVG Version: 6.00 Build 0)  -->
<svg version="1.1" id="Layer_1" xmlns="http://www.w3.org/2000/svg" xmlns:xlink="http://www.w3.org/1999/xlink" x="0px" y="0px"
	 viewBox="0 0 250 250" style="enable-background:new 0 0 250 250;" xml:space="preserve">
<style type="text/css">
	.st0{fill:#FFAE00;}
	.st1{fill:#054186;}
	.st2{fill:#FFCA57;}
</style>
<g id="_x23_ffae00ff">
	<path class="st0" d="M107,16c4.6-4.4,8.7-9.2,13.6-13.2c-6,33.2-12.5,66.3-18.4,99.5c-29.5,5.3-58.8,11.1-88.2,16.5
		c-3.4,0.5-6.6,1.5-9.9,2.2c-0.3,0.1-1,0.2-1.3,0.3c3.4-5,8.4-8.6,12.3-13.2C45.7,77.4,76.4,46.8,107,16z"/>
</g>
<g id="_x23_054186ff">
	<path class="st1" d="M132.9,36.3c23.3-2.2,47.4,4,66.9,16.9c19.9,13.1,35.3,33,42.6,55.7c8,24.3,6.7,51.5-3.6,75
		c-8.7,20.1-23.8,37.2-42.5,48.5c-20.9,12.6-46.3,17.7-70.5,13.9c-24.6-3.6-47.8-16.4-64-35.3c-18.5-21.1-27.9-49.9-25.5-77.8
		c46.3,16.8,92.5,33.7,138.8,50.6c3.2,1.2,6.4,2.6,9.8,3.2l0.9,0.2c0,0.6,0.1,1.9,0.1,2.6l0.4-2.6l2.1,1.2
		c-8-20.5-15.1-41.3-22.8-62C154.8,96.4,143.8,66.4,132.9,36.3z"/>
</g>
<g id="_x23_ffca57ff">
	<path class="st2" d="M14,118.8c29.4-5.4,58.8-11.2,88.2-16.5c26.9,26.6,53.5,53.5,80.3,80.2c1.6,1.6,3.1,3.2,4.6,4.9
		c-0.5-0.1-1.6-0.2-2.1-0.3c-3.4-0.7-6.6-2.1-9.8-3.2c-46.2-16.9-92.5-33.7-138.8-50.6C25.6,129,14.6,125.7,4,121
		C7.3,120.3,10.6,119.2,14,118.8z"/>
</g>
</svg>
